X: 24
T: The Golden Farmer
%C: Mr. Gray
%R: reel
B: Mr. Gray "24 Country Dances for the Year 1803" p.12 #2
S: http://imslp.org/wiki/24_Country_Dances_for_the_Year_1803_(Various)  2013-12-2
Z: 2013 John Chambers <jc:trillian.mit.edu>
M: 2/4
L: 1/16
K: F
|:\
F2cA f2(cA) | f2cA BGG2 | faeg dfcf | ({a}gf)(ga) f2f2 :|
|:\
a2fd a2fd | g2(ec) g2(ec) | a2fd fagf | efge cBAG |
F2cA d2(BG) | g2ec fga2 | dfcf dfcf | (cA)(GA) F2F2 :|
% - - - - - - - - - - - - - - - - - - - - - - - - -
%%begintext align
%% Foot & change sides back again :|: lead down
%% the middle, up again   Allemand :|:
%%endtext
